X: 1365
T: The Magpie's Nest
R:Reel
N:Collected by Carey
B:O'Neill's 1365
Z:Transcribed by Trish O'Neil
M:C|
L:1/8
K:D
Ad{e}dA TBAFA|dAFA TGFED|FAAB AFEF|1ABde Tfee2:|2ABde fdd2||
a2{b}afg2{a}ge|f2fd ecA2|a2{b}ag fedB|ABde Tfee2|
a2fag2eg|f2df ecAF|G2(BGF2)(AF)|ABde fdd2|]


